X: 28878
T: Mystery Inch, The
R: jig
M: 6/8
K: Amajor
"F#m"Fca ge"D"c|eff ecB|"A"ABc ec"E"A|BcA cGA|
"F#m"Fca ge"D"c|e2e ecB|"A"ABc ea"E"g|1 bge cef:|2 bge cBA||
"D"!>!FAc BA"E"!>!E|cBA "F#m"!>!FAc|Bce eee|feB cAF|
"D"!>!DAc BA"E"!>!F|EAc "F#m"!>!BAF|"E"GAe gbg|ece fcB|
AFE "D"!>!DcB|AF"E"!>!E cBA|"F#m"!>!FAc eee|feB cAF|
"D"!>!DAc BA"E"!>!F|EAc BAF|"D"!>!GAe gbg|ece fcB||

